images_sukapura_svg/cmd/sc_open.svg

<svg viewBox="0 0 16 16" xmlns="http://www.w3.org/2000/svg" xmlns:xlink="http://www.w3.org/1999/xlink"><linearGradient id="a" gradientUnits="userSpaceOnUse" x1="8" x2="8" y1="4" y2="14"><stop offset="0" stop-color="#68caf8"/><stop offset=".5" stop-color="#70cef9"/><stop offset=".71428573" stop-color="#79d3fb"/><stop offset=".9285714" stop-color="#67c1ed"/><stop offset="1" stop-color="#67bfea"/></linearGradient>



     /&amp;amp;gt;
 <g fill-rule="evenodd"><path d="m10.5 2.5000002c-.265199.0000511-.519519.1054326-.707031.2929688l-3.207031 1.7070312-5.085938-.0000004c-.5522619.0000552-.9999448.4477381-1 1.0000002v8.5h1 11l1-8v-2.5c-.000055-.5522619-.447738-.9999448-1-1z" fill="#94ddff" stroke="#2bbcff"/><path d="m.79012198 14h1.00000002 10.709878l2.744141-6.5078125c.29761-.9920364.297634-.9921875-.742188-.9921875h-.002-1-1-7.6883936c-1.0211394 0-1.0207621-.0005516-1.2792499.9902344l-1.7421875 4.1757816z" fill="url(#a)" stroke="#15b0f5"/></g></svg>

<?xml version="1.0" encoding="UTF-8" standalone="no"?>
<svg
   xmlns:dc="http://purl.org/dc/elements/1.1/"
   xmlns:cc="http://creativecommons.org/ns#"
   xmlns:rdf="http://www.w3.org/1999/02/22-rdf-syntax-ns#"
   xmlns:svg="http://www.w3.org/2000/svg"
   xmlns="http://www.w3.org/2000/svg"
   xmlns:xlink="http://www.w3.org/1999/xlink"
   xmlns:sodipodi="http://sodipodi.sourceforge.net/DTD/sodipodi-0.dtd"
   xmlns:inkscape="http://www.inkscape.org/namespaces/inkscape"
   viewBox="0 0 16 16"
   version="1.1"
   id="svg8"
   sodipodi:docname="sc_open.svg"
   inkscape:version="0.92.3 (unknown)"
   inkscape:export-filename="/home/rizmut/Dokumen/Rizmut/Github/libreoffice-style-colibrex/images_colibrex/cmd/sc_open.png"
   inkscape:export-xdpi="96"
   inkscape:export-ydpi="96"><metadata
   id="metadata14">
  <rdf:RDF>
    <cc:Work
       rdf:about="">
      <dc:format>image/svg+xml</dc:format>
      <dc:type
         rdf:resource="http://purl.org/dc/dcmitype/StillImage" />
      <dc:title></dc:title>
    </cc:Work>
  </rdf:RDF>
</metadata>
<defs
   id="defs12">
  <linearGradient
     inkscape:collect="always"
     id="linearGradient892">
    <stop
       style="stop-color:#68caf8;stop-opacity:1"
       offset="0"
       id="stop888" />
    <stop
       id="stop900"
       offset="0.5"
       style="stop-color:#70cef9;stop-opacity:1;" />
    <stop
       id="stop896"
       offset="0.71428573"
       style="stop-color:#79d3fb;stop-opacity:1" />
    <stop
       style="stop-color:#67c1ed;stop-opacity:1;"
       offset="0.9285714"
       id="stop898" />
    <stop
       style="stop-color:#67bfea;stop-opacity:1"
       offset="1"
       id="stop890" />
  </linearGradient>
  <linearGradient
     inkscape:collect="always"
     xlink:href="#linearGradient892"
     id="linearGradient858"
     x1="8"
     y1="4"
     x2="8"
     y2="14"
     gradientUnits="userSpaceOnUse" />
</defs>
<sodipodi:namedview
   pagecolor="#ffffff"
   bordercolor="#666666"
   borderopacity="1"
   objecttolerance="10"
   gridtolerance="10"
   guidetolerance="10"
   inkscape:pageopacity="0"
   inkscape:pageshadow="2"
   inkscape:window-width="1366"
   inkscape:window-height="649"
   id="namedview10"
   showgrid="true"
   inkscape:zoom="14.75"
   inkscape:cx="7.6733583"
   inkscape:cy="5.383663"
   inkscape:window-x="0"
   inkscape:window-y="30"
   inkscape:window-maximized="1"
   inkscape:current-layer="svg8"
   inkscape:snap-smooth-nodes="true">
  <inkscape:grid
     type="xygrid"
     id="grid843"
     spacingx="0.5"
     spacingy="0.5"
     empspacing="2" />
</sodipodi:namedview>



     /&amp;gt;
 <g
   fill-rule="evenodd"
   id="g847">
  <path
     id="path845"
     d="M 10.5,2.5000002 C 10.234801,2.5000513 9.980481,2.6054328 9.792969,2.792969 L 6.585938,4.5000002 1.5,4.4999998 C 0.9477381,4.500055 0.5000552,4.9477379 0.5,5.5 l 0,8.5 h 1 l 11,0 1,-8 V 3.5 c -5.5e-5,-0.5522619 -0.447738,-0.9999448 -1,-1 z"
     inkscape:connector-curvature="0"
     style="fill:#94ddff;fill-opacity:1;stroke:#2bbcff;stroke-opacity:1"
     sodipodi:nodetypes="cccccccccccc" />
</g>
<g
   id="g6"
   fill-rule="evenodd">
  <path
     d="M 0.79012198,14 H 1.790122 12.5 L 15.244141,7.4921875 C 15.541751,6.5001511 15.541775,6.5 14.501953,6.5 h -0.002 -1 -1 -7.6883936 C 3.79042,6.5 3.7907973,6.4994484 3.5323095,7.4902344 L 1.790122,11.666016 Z"
     id="path2"
     inkscape:connector-curvature="0"
     sodipodi:nodetypes="ccccscccsccc"
     style="fill:url(#linearGradient858);fill-opacity:1;stroke:#15b0f5;stroke-opacity:1" />
</g>
</svg>
